X: 27883
T: Mountain Dew
R: reel
M: 4/4
K: Dmajor
A|B2EB GBEd|BE(3EGE ADFA|B2EB GBEe|geeB ADFA|
B2EB GBEd|BE(3EGE ADFA|B2EA GBEe|gedB ADFA||
B2eg fded|Bdeg fddA|Bdeg fded|BdAG FD(3DED|
B2eg fded|Bdeg fddA|dfaf gfed|BdAd BEE2||

